dist/image/icons/envelope.svg

<svg xmlns="http://www.w3.org/2000/svg" width="32" height="32" viewBox="0 0 32 32"><path d="M29 4h-26c-1.65 0-3 1.35-3 3v20c0 1.65 1.35 3 3 3h26c1.65 0 3-1.35 3-3v-20c0-1.65-1.35-3-3-3zm-16.539 13.199l-8.461 6.59v-15.676l8.461 9.086zm-6.949-9.199h20.976l-10.488 7.875-10.488-7.875zm7.278 9.553l3.21 3.447 3.21-3.447 6.58 8.447h-19.579l6.58-8.447zm6.749-.354l8.461-9.086v15.676l-8.461-6.59z"/></svg>

<svg xmlns="http://www.w3.org/2000/svg" width="32" height="32" viewBox="0 0 32 32"><path d="M29 4H3C1.35 4 0 5.35 0 7v20c0 1.65 1.35 3 3 3h26c1.65 0 3-1.35 3-3V7c0-1.65-1.35-3-3-3zM12.46 17.2L4 23.79V8.112l8.46 9.086zM5.513 8h20.976L16 15.875 5.512 8zm7.278 9.553L16 21l3.21-3.447L25.79 26H6.21l6.58-8.447zm6.75-.354L28 8.112V23.79l-8.46-6.59z"/></svg>
